Themes/OneUI/assets/svg/phone-squircle-2.svg

<svg width="60" height="60" viewBox="0 0 60 60" fill="none" xmlns="http://www.w3.org/2000/svg">
<g clip-path="url(#clip0_1_609)">
<path d="M59.4501 21.0556C58.7114 15.4844 56.7401 10.4361 53.2622 6.73781H53.2614C49.5643 3.26031 44.5152 1.28871 38.9439 0.55121C33.6227 -0.15419 29.9998 0.01871 29.9998 0.01871C29.9998 0.01871 26.376 -0.15419 21.0556 0.55121C15.4835 1.28871 10.4356 3.26031 6.73814 6.73781H6.73734C3.26064 10.4361 1.28814 15.4844 0.550241 21.0556C-0.155159 26.3768 0.0190409 30.0005 0.0190409 30.0005C0.0190409 30.0005 -0.155159 33.6229 0.550241 38.9446C1.28814 44.5153 3.26064 49.564 6.73734 53.2619L6.73814 53.2627C10.4356 56.7394 15.4835 58.7119 21.0556 59.4498C26.376 60.1548 29.9998 59.981 29.9998 59.981C29.9998 59.981 33.6227 60.1548 38.9439 59.4498C44.5152 58.7119 49.5643 56.7394 53.2614 53.2627L53.2622 53.2619C56.7401 49.564 58.7114 44.5153 59.4501 38.9446C60.1547 33.6229 59.981 30.0005 59.981 30.0005C59.981 30.0005 60.1547 26.3768 59.4501 21.0556Z" fill="#0BAE64"/>
<path d="M28.3397 24.729C28.8295 24.2519 29.5158 23.9167 30.8419 23.9167H34.1778V23.9163C35.4944 23.9138 36.1786 23.5795 36.6662 23.1041C37.1564 22.6266 37.5 21.9588 37.5 20.6662V17.4168C37.5 16.125 37.1564 15.4568 36.6662 14.9789C36.1786 14.5035 35.4944 14.17 34.1778 14.1675V14.1667H34.1688H34.1641C28.8329 14.1692 26.1641 15.5189 24.1923 17.4393C22.2192 19.3614 20.8333 22.0542 20.8333 27.2564V33.5765C20.8333 38.7792 22.2192 41.4723 24.1923 43.3936C26.1641 45.3149 28.8329 46.6642 34.1641 46.6667H34.1688H34.1778V46.6663C35.4944 46.6638 36.1786 46.3299 36.6662 45.854C37.1564 45.3769 37.5 44.7087 37.5 43.4169V40.1667C37.5 38.8749 37.1564 38.2063 36.6662 37.7292C36.1786 37.2538 35.4944 36.9191 34.1778 36.917V36.9162H30.8419C29.5158 36.9162 28.8295 36.5823 28.3397 36.1044C27.85 35.6273 27.5056 34.9582 27.5056 33.6668V27.1665C27.5056 25.8747 27.85 25.2065 28.3397 24.729Z" fill="white"/>
</g>
<defs>
<clipPath id="clip0_1_609">
<rect width="60" height="60" fill="white"/>
</clipPath>
</defs>
</svg>

<?xml version="1.0" encoding="UTF-8" standalone="no"?>
<svg
   width="59.999943"
   height="59.999954"
   viewBox="0 0 59.999943 59.999954"
   fill="none"
   version="1.1"
   id="svg1573"
   sodipodi:docname="phone-squircle-2.svg"
   xmlns:inkscape="http://www.inkscape.org/namespaces/inkscape"
   xmlns:sodipodi="http://sodipodi.sourceforge.net/DTD/sodipodi-0.dtd"
   xmlns="http://www.w3.org/2000/svg"
   xmlns:svg="http://www.w3.org/2000/svg">
  <sodipodi:namedview
     id="namedview1575"
     pagecolor="#ffffff"
     bordercolor="#666666"
     borderopacity="1.0"
     inkscape:showpageshadow="2"
     inkscape:pageopacity="0.0"
     inkscape:pagecheckerboard="0"
     inkscape:deskcolor="#d1d1d1" />
  <g
     clip-path="url(#clip0_1_609)"
     id="g1566">
    <path
       d="M 59.4501,21.0556 C 58.7114,15.4844 56.7401,10.4361 53.2622,6.73781 h -8e-4 c -3.6971,-3.4775 -8.7462,-5.4491 -14.3175,-6.1866 -5.3212,-0.7054 -8.9441,-0.5325 -8.9441,-0.5325 0,0 -3.6238,-0.1729 -8.9442,0.5325 -5.5721,0.7375 -10.62,2.7091 -14.31746,6.1866 h -8e-4 c -3.4767,3.69829 -5.4492,8.74659 -6.187099,14.31779 -0.7054,5.3212 -0.5312001,8.9449 -0.5312001,8.9449 0,0 -0.1741999,3.6224 0.5312001,8.9441 C 1.28814,44.5153 3.26064,49.564 6.73734,53.2619 l 8e-4,8e-4 c 3.69746,3.4767 8.74536,5.4492 14.31746,6.1871 5.3204,0.705 8.9442,0.5312 8.9442,0.5312 0,0 3.6229,0.1738 8.9441,-0.5312 5.5713,-0.7379 10.6204,-2.7104 14.3175,-6.1871 l 8e-4,-8e-4 c 3.4779,-3.6979 5.4492,-8.7466 6.1879,-14.3173 0.7046,-5.3217 0.5309,-8.9441 0.5309,-8.9441 0,0 0.1737,-3.6237 -0.5309,-8.9449 z"
       fill="#0bae64"
       id="path1562" />
    <path
       d="m 28.3397,24.729 c 0.4898,-0.4771 1.1761,-0.8123 2.5022,-0.8123 h 3.3359 v -4e-4 c 1.3166,-0.0025 2.0008,-0.3368 2.4884,-0.8122 C 37.1564,22.6266 37.5,21.9588 37.5,20.6662 v -3.2494 c 0,-1.2918 -0.3436,-1.96 -0.8338,-2.4379 -0.4876,-0.4754 -1.1718,-0.8089 -2.4884,-0.8114 v -8e-4 h -0.009 -0.0047 c -5.3312,0.0025 -8,1.3522 -9.9718,3.2726 -1.9731,1.9221 -3.359,4.6149 -3.359,9.8171 v 6.3201 c 0,5.2027 1.3859,7.8958 3.359,9.8171 1.9718,1.9213 4.6406,3.2706 9.9718,3.2731 h 0.0047 0.009 v -4e-4 C 35.4944,46.6638 36.1786,46.3299 36.6662,45.854 37.1564,45.3769 37.5,44.7087 37.5,43.4169 v -3.2502 c 0,-1.2918 -0.3436,-1.9604 -0.8338,-2.4375 -0.4876,-0.4754 -1.1718,-0.8101 -2.4884,-0.8122 v -8e-4 h -3.3359 c -1.3261,0 -2.0124,-0.3339 -2.5022,-0.8118 -0.4897,-0.4771 -0.8341,-1.1462 -0.8341,-2.4376 v -6.5003 c 0,-1.2918 0.3444,-1.96 0.8341,-2.4375 z"
       fill="#ffffff"
       id="path1564" />
  </g>
  <defs
     id="defs1571">
    <clipPath
       id="clip0_1_609">
      <rect
         width="60"
         height="60"
         fill="#ffffff"
         id="rect1568"
         x="0"
         y="0" />
    </clipPath>
  </defs>
</svg>
